!!!SOCIAL_FUNCTION:	songs with hunting dance
!!!PDT:	1956
!!!OTL: No_63_Calusa_Hunting_Dance_Song_(g).krn
!!!LANG: Non-Tone
!!!LING_GROUP: Muskogean
!!!REG: Florida
**kern
*staff1
=1-
*clefF4
*k[b-]
*M3/4
2r
8r
8F\
=2
4..c\
16B-\
4A\
=3||
*M2/4
12F\L
12F\
12F\J
4F\
=4
8.F\L
16B-\Jk
8.A\L
16c\Jk
=5||
*M3/4
2A\
8A\L
16F\L
[16F\JJ
=6||
*M2/4
8.F\L]
16A\Jk
8.F\L
16A\Jk
=7||
*M3/4
[2F\
8F\L]
16F\L
16F\JJ
=8
4F\
8.F\L
16A\Jk
4F\
=9
[4A\
8.A\L]
16F\Jk
8.F\L
16A\Jk
=10||
*M2/4
8.F\L
16A\Jk
8.F\L
16A\Jk
=11||
*M3/4
4.F\
16F\LL
16F\JJ
4F\
=12||
*M2/4
8.F\L
16F\Jk
8F\
8r
=13||
*M3/4
4..c\
16B-\
4A\
=14||
*M2/4
12F\L
12F\
12F\J
4F\
=15
8.F\L
16B-\Jk
8.A\L
16c\Jk
=16||
*M3/4
2A\
8A\L
16F\L
16F\JJ
=17
8.F\L
16A\Jk
8.F\L
16A\Jk
4F\
=18!|:
16c\LK
8.c\J
12A\L
12c\
12c\J
(4c\
=19
16A\LK)
8.A\J
12F\L
12B-\
12B-\J
12A\L
12F\
12A\J
=20||
*M5/8
8F\L
8F\
8F\
8F\
8F\J
=21
4.F\
4C/
=22||
*M2/4
12F\L
12F\
12F\J
4F\
=23
16B-\LK
8.A\J
12A\L
12F\
12F\J
=24
4F\
4C/
=25
12F\L
12F\
12F\J
4F\
=26:|!
(4.c\
16G\)
16r
=27!|:
4F\
4F\
=28
4.c\
8G\
=29
8c\L
8B-\J
8G\L
8F\J
=30
8B-\L
8G\J
8F\L
8E\J
=31||
*M3/4
4F\
2r
=32||
*M2/4
4F\
8F\L
8F\J
=33
2F\
=34
4F\
8G\L
8F\J
=35
4F\
4r
=36
4F\
8F\L
8F\J
=37
2F\
=38
4F\
4F\
=39
2c\
=40
8c\L
8B-\J
8G\L
8F\J
=41
8B-\L
8G\J
8F\L
8E\J
=42||
*M3/4
4F\
2r
=43||
*M2/4
4F\
8F\L
8F\J
=44
2F\
=45
4F\
8G\L
8F\J
=46
2F\
=47
4F\
8F\L
8F\J
=48
2F\
==:|!
*-
